X:15
T:Wind That Shakes The Barley, The
T:An Ghaoth A Bhogann An Eorna
T:Little Pack Of Tailors
T:Little Pack Of Tailors, The
T:Pack Of Tailors, The
T:Wind That Shakes The Barley
T:Wind That Shakes The Barley, The
M:4/4
L:1/8
R:reel
K:Dmaj
|A2AB AFED|B2BA BcdB|A2AB AFED|gfed BcdB|
A2AB AFED|B2BA BcdB|A2AB AFED|gfed Bcde|
|f2fd g2ge|f2fd Bcde|f2fd g2fg|afed Bcde|
f2fd g2ge|f2fd Bcde|f2ae g2be|afed BcdB|
W:Variation from gian marco
K:EMin
|B2Gc BGFE|c2cB cdec|B2Gc BGFE|agfe cdec|
~B3c BGFG|EccB cdec|B2Gc BGFE|agfe cdef||
~g3e ~a3f|~g3e cdef|~g3e a2ga|bgfe cdef|
~g3e ~a3f|~g3e cdef|efga bgc'g|bgfe cdec|]
W:Variation from slainte
K: Dmaj
A2AB AFED|B2BA BcdB|A2AB ABde|1 fedc BcdB:|2 fedc Bcde||
f2fd g2ge|f2fd Bcde|f2fd g2fg|afed Bcde|
f2fd g2ge|f2fd Bcde|defg a2ab|afed BcdB||
W:Variation from Dan the Man
K: Gmaj
|D2 (3B,A,G, D2 (3B,A,G,|E2 ED EG G2|B,D DB, D2|GG B2 AG|EGGE|
|D2 (3B,A,G, D2 (3B,A,G,|E2 ED EG G2|B,D DB, D2|GG B2 AG|EGG2|
|B4 c4 B3|/2GE GG2|B4 c4 dBA|GE GG2|B4 c4 B3|
|GE GG2|DEGA B2|de dB AG EG|GE D2|
W:Variation from MTGuru
K:Em
F|GFEF|GFEF|GGGB|AFDF|
GFGA|BcBA|GEFD|EE2F|
GFGA|BcBA|GFGA|BEEF|
GFGA|BcBA|GEFD|EE2|]
W:Variation from Tall, Dark, and Mysterious
K: Dmaj
|A2AB AFED|B2BA BcdB|A2AB AFED|gfed BcdB|
A2AB AFED|B2BA BcdB|A2AB AFED|gfed Bcde|
|f2fd g2ge|f2fd Bcde|fafd gbge|afed Bcde|
f3d g3e|f2fd Bcde|f4 g4|a2f2 e2d2
|A2 A A2 FED|B2 B B2 cdB|A2AB AFED|gfe2 BcdB|
(A4 A) FED|(B4 B) cdB|A2AB AFED|B2 c2 d2 e2|
|f2fd g2ge|f4 Bcde|f2fd g2fg|afe2 Bcde|
f2fd g2ge|f2fd Bcde|f2ae g2be|afed BcdB
|(A4 A) FE2|(B4B) cd2|A2 A A2 FE2|g2 e2 BcdB|
A2AB AFED|B2BA BcdB|A2A2 AFED|g2 f2 d2 e2|
|f2fd g2ge|f2fd Bcde|fef2 g4|afed Bcde|
f2fd g2ge|f2fd Bcde|fafd gbge|afed Bcdc|d8|
